X:6092
T:Slandering(?) Bessy. HSJJ.080
O:england
M:2/4
L:1/4
Q:40
S:HSJ Jackson,Wyresdale,Lancs.1823
R:Misc.
A:Lancashire
H:1823
K:F
FF|FC|GG|AF|FF|FC|GG|Az:|
|Bc/d/|AA|de/f/|cA|Bc/d/|AA|G/F/G/A/|Fz:|]


